icons/outline/disc-golf.svg

<!--
tags: [frisbee, throw, sport, activity]
category: Sport
unicode: "f385"
version: "1.91"
-->
<svg
  xmlns="http://www.w3.org/2000/svg"
  width="24"
  height="24"
  viewBox="0 0 24 24"
  fill="none"
  stroke="currentColor"
  stroke-width="2"
  stroke-linecap="round"
  stroke-linejoin="round"
>
  <path d="M5 5h14m-13 0c.32 6.744 2.74 9.246 6 10m6 -10c-.32 6.744 -2.74 9.246 -6 10m-2 -10c0 4.915 .552 7.082 2 10m2 -10c0 4.915 -.552 7.082 -2 10m0 0v6m0 -18v2m-5 11c.64 .64 1.509 1 2.414 1h5.172c.905 0 1.774 -.36 2.414 -1m-6 5h2" />
</svg>

<!--
tags: [frisbee, throw, sport, activity]
category: Sport
unicode: "f385"
version: "1.91"
-->
<svg
  xmlns="http://www.w3.org/2000/svg"
  width="24"
  height="24"
  viewBox="0 0 24 24"
  fill="none"
  stroke="currentColor"
  stroke-width="2"
  stroke-linecap="round"
  stroke-linejoin="round"
>
    <path d="M5 5h14M6 5c.32 6.744 2.74 9.246 6 10M18 5c-.32 6.744 -2.74 9.246 -6 10M10 5c0 4.915 .552 7.082 2 10M14 5c0 4.915 -.552 7.082 -2 10M12 15v6M12 3v2M7 16c.64 .64 1.509 1 2.414 1h5.172c.905 0 1.774 -.36 2.414 -1M11 21h2" />
</svg>
